flaticon/household/armchair-6.svg

<svg xmlns="http://www.w3.org/2000/svg" width="32" height="32" viewBox="0 0 24 24">
    <path d="M 22.757812 7.863281 L 19.035156 7.863281 L 19.035156 1.78125 C 19.035156 1.027344 18.421875 0.414062 17.667969 0.414062 L 6.332031 0.414062 C 5.578125 0.414062 4.964844 1.027344 4.964844 1.78125 L 4.964844 7.863281 L 1.242188 7.863281 C 0.558594 7.863281 0 8.417969 0 9.101562 L 0 9.515625 C 0 10.203125 0.558594 10.757812 1.242188 10.757812 L 1.65625 10.757812 L 1.65625 19.863281 L 2.070312 19.863281 L 2.070312 23.585938 L 4.136719 23.585938 L 4.136719 19.863281 L 4.550781 19.863281 L 4.550781 17.378906 L 4.964844 17.378906 L 4.964844 18.207031 L 19.035156 18.207031 L 19.035156 17.378906 L 19.449219 17.378906 L 19.449219 19.863281 L 19.863281 19.863281 L 19.863281 23.585938 L 21.929688 23.585938 L 21.929688 19.863281 L 22.34375 19.863281 L 22.34375 10.757812 L 22.757812 10.757812 C 23.441406 10.757812 24 10.203125 24 9.515625 L 24 9.101562 C 24 8.417969 23.441406 7.863281 22.757812 7.863281 Z M 5.792969 1.78125 C 5.792969 1.484375 6.035156 1.242188 6.332031 1.242188 L 17.667969 1.242188 C 17.964844 1.242188 18.207031 1.484375 18.207031 1.78125 L 18.207031 7.933594 C 18.191406 7.9375 18.179688 7.945312 18.167969 7.949219 C 18.144531 7.960938 18.121094 7.96875 18.097656 7.980469 C 18.054688 8 18.007812 8.027344 17.964844 8.054688 C 17.945312 8.066406 17.925781 8.078125 17.90625 8.089844 C 17.855469 8.125 17.8125 8.164062 17.765625 8.207031 C 17.757812 8.214844 17.746094 8.222656 17.738281 8.230469 C 17.6875 8.28125 17.644531 8.339844 17.601562 8.398438 C 17.589844 8.414062 17.582031 8.433594 17.570312 8.449219 C 17.542969 8.496094 17.515625 8.539062 17.492188 8.589844 C 17.484375 8.613281 17.472656 8.636719 17.464844 8.660156 C 17.445312 8.707031 17.429688 8.757812 17.417969 8.808594 C 17.414062 8.832031 17.40625 8.851562 17.402344 8.875 C 17.386719 8.949219 17.378906 9.023438 17.378906 9.101562 L 17.378906 9.515625 C 17.378906 9.59375 17.386719 9.671875 17.402344 9.746094 C 17.40625 9.769531 17.414062 9.789062 17.417969 9.8125 C 17.433594 9.863281 17.445312 9.914062 17.464844 9.960938 C 17.472656 9.984375 17.484375 10.007812 17.492188 10.03125 C 17.515625 10.078125 17.542969 10.125 17.570312 10.171875 C 17.582031 10.1875 17.589844 10.207031 17.601562 10.222656 C 17.644531 10.28125 17.6875 10.339844 17.738281 10.390625 C 17.746094 10.398438 17.757812 10.40625 17.765625 10.414062 C 17.8125 10.457031 17.855469 10.496094 17.90625 10.53125 C 17.925781 10.542969 17.945312 10.554688 17.964844 10.566406 C 18.007812 10.59375 18.054688 10.617188 18.101562 10.640625 C 18.121094 10.652344 18.144531 10.660156 18.167969 10.671875 C 18.179688 10.675781 18.191406 10.683594 18.207031 10.6875 L 18.207031 12 L 5.792969 12 L 5.792969 10.6875 C 5.808594 10.683594 5.820312 10.675781 5.832031 10.671875 C 5.855469 10.660156 5.878906 10.652344 5.898438 10.640625 C 5.945312 10.617188 5.992188 10.59375 6.035156 10.566406 C 6.054688 10.554688 6.074219 10.542969 6.09375 10.53125 C 6.144531 10.496094 6.1875 10.457031 6.234375 10.414062 C 6.242188 10.40625 6.253906 10.398438 6.261719 10.390625 C 6.3125 10.339844 6.355469 10.28125 6.398438 10.222656 C 6.410156 10.207031 6.417969 10.1875 6.429688 10.171875 C 6.457031 10.125 6.484375 10.078125 6.507812 10.03125 C 6.515625 10.007812 6.527344 9.984375 6.535156 9.960938 C 6.554688 9.914062 6.570312 9.863281 6.582031 9.8125 C 6.585938 9.789062 6.59375 9.769531 6.597656 9.746094 C 6.613281 9.671875 6.621094 9.59375 6.621094 9.515625 L 6.621094 9.101562 C 6.621094 9.023438 6.613281 8.949219 6.597656 8.875 C 6.59375 8.851562 6.585938 8.832031 6.582031 8.808594 C 6.566406 8.757812 6.554688 8.707031 6.535156 8.660156 C 6.527344 8.636719 6.515625 8.613281 6.503906 8.589844 C 6.484375 8.542969 6.457031 8.496094 6.429688 8.449219 C 6.417969 8.433594 6.410156 8.414062 6.398438 8.398438 C 6.355469 8.339844 6.3125 8.28125 6.261719 8.230469 C 6.25 8.222656 6.242188 8.214844 6.230469 8.207031 C 6.1875 8.164062 6.140625 8.125 6.09375 8.089844 C 6.074219 8.078125 6.054688 8.066406 6.035156 8.054688 C 5.992188 8.027344 5.945312 8.003906 5.898438 7.980469 C 5.878906 7.96875 5.855469 7.960938 5.832031 7.949219 C 5.820312 7.945312 5.808594 7.9375 5.792969 7.933594 Z M 4.964844 14.484375 L 4.550781 14.484375 L 4.550781 10.757812 L 4.964844 10.757812 Z M 5.792969 12.828125 L 18.207031 12.828125 L 18.207031 14.070312 L 5.792969 14.070312 Z M 19.035156 14.070312 L 19.035156 10.757812 L 19.449219 10.757812 L 19.449219 14.484375 L 19.035156 14.484375 Z M 3.308594 22.757812 L 2.898438 22.757812 L 2.898438 19.863281 L 3.308594 19.863281 Z M 3.722656 16.550781 L 3.722656 19.035156 L 2.484375 19.035156 L 2.484375 9.929688 L 1.242188 9.929688 C 1.011719 9.929688 0.828125 9.746094 0.828125 9.515625 L 0.828125 9.101562 C 0.828125 8.875 1.011719 8.691406 1.242188 8.691406 L 5.378906 8.691406 C 5.609375 8.691406 5.792969 8.875 5.792969 9.101562 L 5.792969 9.515625 C 5.792969 9.746094 5.609375 9.929688 5.378906 9.929688 L 3.722656 9.929688 L 3.722656 15.308594 L 4.964844 15.308594 L 4.964844 16.550781 Z M 5.792969 17.378906 L 5.792969 14.898438 L 18.207031 14.898438 L 18.207031 17.378906 Z M 21.101562 22.757812 L 20.691406 22.757812 L 20.691406 19.863281 L 21.101562 19.863281 Z M 23.171875 9.515625 C 23.171875 9.746094 22.988281 9.929688 22.757812 9.929688 L 21.515625 9.929688 L 21.515625 19.035156 L 20.277344 19.035156 L 20.277344 16.550781 L 19.035156 16.550781 L 19.035156 15.308594 L 20.277344 15.308594 L 20.277344 9.929688 L 18.621094 9.929688 C 18.390625 9.929688 18.207031 9.746094 18.207031 9.515625 L 18.207031 9.101562 C 18.207031 8.875 18.390625 8.691406 18.621094 8.691406 L 22.757812 8.691406 C 22.988281 8.691406 23.171875 8.875 23.171875 9.101562 Z M 23.171875 9.515625"/>
    <path d="M9.929688 7.863281C9.929688 8.089844 9.746094 8.277344 9.515625 8.277344 9.289062 8.277344 9.101562 8.089844 9.101562 7.863281 9.101562 7.632812 9.289062 7.449219 9.515625 7.449219 9.746094 7.449219 9.929688 7.632812 9.929688 7.863281zM12.414062 7.863281C12.414062 8.089844 12.230469 8.277344 12 8.277344 11.769531 8.277344 11.585938 8.089844 11.585938 7.863281 11.585938 7.632812 11.769531 7.449219 12 7.449219 12.230469 7.449219 12.414062 7.632812 12.414062 7.863281zM9.929688 10.34375C9.929688 10.574219 9.746094 10.757812 9.515625 10.757812 9.289062 10.757812 9.101562 10.574219 9.101562 10.34375 9.101562 10.117188 9.289062 9.929688 9.515625 9.929688 9.746094 9.929688 9.929688 10.117188 9.929688 10.34375zM12.414062 10.34375C12.414062 10.574219 12.230469 10.757812 12 10.757812 11.769531 10.757812 11.585938 10.574219 11.585938 10.34375 11.585938 10.117188 11.769531 9.929688 12 9.929688 12.230469 9.929688 12.414062 10.117188 12.414062 10.34375zM11.171875 9.101562C11.171875 9.332031 10.988281 9.515625 10.757812 9.515625 10.53125 9.515625 10.34375 9.332031 10.34375 9.101562 10.34375 8.875 10.53125 8.691406 10.757812 8.691406 10.988281 8.691406 11.171875 8.875 11.171875 9.101562zM13.65625 9.101562C13.65625 9.332031 13.46875 9.515625 13.242188 9.515625 13.011719 9.515625 12.828125 9.332031 12.828125 9.101562 12.828125 8.875 13.011719 8.691406 13.242188 8.691406 13.46875 8.691406 13.65625 8.875 13.65625 9.101562zM11.171875 6.683594C11.171875 6.914062 10.988281 7.097656 10.757812 7.097656 10.53125 7.097656 10.34375 6.914062 10.34375 6.683594 10.34375 6.453125 10.53125 6.269531 10.757812 6.269531 10.988281 6.269531 11.171875 6.453125 11.171875 6.683594zM13.65625 6.683594C13.65625 6.914062 13.46875 7.097656 13.242188 7.097656 13.011719 7.097656 12.828125 6.914062 12.828125 6.683594 12.828125 6.453125 13.011719 6.269531 13.242188 6.269531 13.46875 6.269531 13.65625 6.453125 13.65625 6.683594zM14.898438 7.863281C14.898438 8.089844 14.710938 8.277344 14.484375 8.277344 14.253906 8.277344 14.070312 8.089844 14.070312 7.863281 14.070312 7.632812 14.253906 7.449219 14.484375 7.449219 14.710938 7.449219 14.898438 7.632812 14.898438 7.863281zM14.898438 10.34375C14.898438 10.574219 14.710938 10.757812 14.484375 10.757812 14.253906 10.757812 14.070312 10.574219 14.070312 10.34375 14.070312 10.117188 14.253906 9.929688 14.484375 9.929688 14.710938 9.929688 14.898438 10.117188 14.898438 10.34375zM14.898438 10.34375"/>
</svg>

<svg xmlns="http://www.w3.org/2000/svg" width="32" height="32" viewBox="0 0 24 24">
    <path d="M22.758 7.863h-3.723V1.781c0-.754-.613-1.367-1.367-1.367H6.332c-.754 0-1.367.613-1.367 1.367v6.082H1.242C.56 7.863 0 8.418 0 9.102v.414c0 .687.559 1.242 1.242 1.242h.414v9.105h.414v3.723h2.067v-3.723h.414V17.38h.414v.828h14.07v-.828h.414v2.484h.414v3.723h2.067v-3.723h.414v-9.105h.414c.683 0 1.242-.555 1.242-1.242v-.414c0-.684-.559-1.239-1.242-1.239zM5.793 1.781a.54.54 0 0 1 .539-.539h11.336a.54.54 0 0 1 .539.54v6.152c-.016.003-.027.011-.039.015-.023.012-.047.02-.07.031-.043.02-.09.047-.133.075l-.059.035c-.05.035-.093.074-.14.117-.008.008-.02.016-.028.023-.05.051-.093.11-.136.168-.012.016-.02.036-.032.051-.027.047-.054.09-.078.14-.008.024-.02.048-.027.071a.938.938 0 0 0-.047.149c-.004.023-.012.043-.016.066a1.088 1.088 0 0 0-.023.227v.414c0 .078.008.156.023.23.004.024.012.043.016.066.016.051.027.102.047.149.008.023.02.047.027.07.024.047.051.094.078.14.012.017.02.036.032.052.043.058.085.117.136.168.008.007.02.015.028.023.047.043.09.082.14.117l.059.035c.043.028.09.051.137.075.02.011.043.02.066.03.012.005.023.013.039.017V12H5.793v-1.313c.016-.003.027-.011.039-.015.023-.012.047-.02.066-.031.047-.024.094-.047.137-.075l.059-.035c.05-.035.093-.074.14-.117.008-.008.02-.016.028-.023.05-.051.093-.11.136-.168.012-.016.02-.036.032-.051.027-.047.054-.094.078-.14.008-.024.02-.048.027-.071a.938.938 0 0 0 .047-.149c.004-.023.012-.042.016-.066.015-.074.023-.152.023-.23v-.414c0-.079-.008-.153-.023-.227-.004-.023-.012-.043-.016-.066-.016-.051-.027-.102-.047-.149a.553.553 0 0 0-.031-.07c-.02-.047-.047-.094-.074-.14-.012-.016-.02-.036-.032-.052a1.425 1.425 0 0 0-.136-.168c-.012-.007-.02-.015-.032-.023a1.277 1.277 0 0 0-.136-.117l-.059-.035c-.043-.028-.09-.051-.137-.075-.02-.011-.043-.02-.066-.03-.012-.005-.023-.013-.039-.016zm-.828 12.703H4.55v-3.726h.414zm.828-1.656h12.414v1.242H5.793zm13.242 1.242v-3.312h.414v3.726h-.414zM3.31 22.758h-.41v-2.895h.41zm.414-6.207v2.484H2.484V9.93H1.242a.412.412 0 0 1-.414-.414v-.414c0-.227.184-.41.414-.41H5.38c.23 0 .414.183.414.41v.414c0 .23-.184.414-.414.414H3.723v5.379h1.242v1.242zm2.07.828v-2.48h12.414v2.48zm15.309 5.379h-.41v-2.895h.41zm2.07-13.242c0 .23-.184.414-.414.414h-1.242v9.105h-1.239v-2.484h-1.242v-1.242h1.242v-5.38h-1.656a.412.412 0 0 1-.414-.413v-.414c0-.227.184-.41.414-.41h4.137c.23 0 .414.183.414.41zm0 0"/>
    <path d="M9.93 7.863a.414.414 0 1 1-.829 0 .414.414 0 0 1 .829 0zm0 0M12.414 7.863a.414.414 0 1 1-.828 0 .414.414 0 0 1 .828 0zm0 0M9.93 10.344a.414.414 0 1 1-.828 0 .414.414 0 0 1 .828 0zm0 0M12.414 10.344c0 .23-.184.414-.414.414a.414.414 0 1 1 .414-.414zm0 0M11.172 9.102a.414.414 0 0 1-.828 0c0-.227.187-.41.414-.41.23 0 .414.183.414.41zm0 0M13.656 9.102a.414.414 0 0 1-.828 0c0-.227.184-.41.414-.41.227 0 .414.183.414.41zm0 0M11.172 6.684a.414.414 0 1 1-.828 0 .414.414 0 0 1 .828 0zm0 0M13.656 6.684a.414.414 0 1 1-.828 0 .414.414 0 0 1 .828 0zm0 0M14.898 7.863a.414.414 0 1 1-.828 0 .414.414 0 0 1 .828 0zm0 0M14.898 10.344a.414.414 0 1 1-.828 0 .414.414 0 0 1 .828 0zm0 0"/>
</svg>
